src/img/categories/woman.svg

<svg width="41" height="31" viewBox="0 0 41 31" fill="none" xmlns="http://www.w3.org/2000/svg">
<path fill-rule="evenodd" clip-rule="evenodd" d="M40.2656 5.3197C40.2569 5.30615 40.2463 5.29424 40.2352 5.28397C40.2044 5.25522 40.1641 5.23551 40.1198 5.23017L40.1046 5.22894C34.5868 4.95091 26.4833 5.79362 25.257 5.92668L24.687 4.46837C23.4501 1.30329 19.694 -0.305322 16.3117 0.884815L15.5491 1.15299C13.8435 1.75257 12.5015 2.94928 11.77 4.52258C11.0924 5.98006 11.0288 7.601 11.5914 9.08682L12.1425 10.5414C11.0871 11.2207 4.37049 15.5849 0.368048 19.2046C0.304393 19.2625 0.283038 19.3537 0.315481 19.4338C0.346693 19.5114 0.422257 19.5623 0.506035 19.5623H0.512195C0.584063 19.5603 6.02633 19.3566 13.2838 16.3591C13.2193 17.3205 12.9725 18.4001 12.3511 19.4535C11.9914 20.0634 11.515 20.5935 10.9815 21.0588C9.63412 22.235 5.59143 26.2526 7.7602 30.4777C7.7602 30.4777 7.88382 27.8847 9.94335 26.557C10.4846 26.2083 11.1134 26.0198 11.7532 25.9463L13.0086 25.8017C13.0086 25.8017 13.9971 25.6543 15.0246 25.2251C15.9975 24.8186 16.7084 23.9726 16.9425 22.9442C17.1827 21.888 17.3047 20.2223 16.8727 17.7541C17.3992 18.1283 17.9963 18.4486 18.6513 18.704C18.9109 18.8071 19.2164 18.8572 19.5856 18.8572C19.9548 18.8572 20.2608 18.8071 20.5191 18.7044C21.0899 18.4818 21.6139 18.2092 22.087 17.897L21.926 21.1299C21.926 21.1299 21.8542 23.0481 22.6287 24.2161C23.4036 25.3841 25.2735 25.3746 25.2735 25.3746C25.2735 25.3746 23.6948 24.6112 23.3995 22.9171C23.2028 21.7878 23.4739 20.8465 23.6763 20.3447C23.7597 20.1381 23.8414 19.9315 23.919 19.7233C24.1125 19.2075 24.3227 18.6987 24.5531 18.1981C25.1022 17.0046 25.8969 14.4293 26.147 11.5394C35.3999 9.51023 40.1366 5.6659 40.2253 5.59239L40.2257 5.59232L40.2257 5.59198H40.2261H40.2266C40.2266 5.59198 40.2274 5.59198 40.2274 5.59116C40.236 5.58376 40.2442 5.57596 40.2516 5.56734L40.252 5.56693C40.2779 5.53654 40.2951 5.49793 40.2992 5.45522C40.3005 5.44619 40.3005 5.43715 40.3005 5.42812C40.2992 5.38828 40.2861 5.35091 40.2656 5.3197ZM20.4431 18.5135C20.2086 18.6071 19.9277 18.6523 19.5848 18.6523C19.2423 18.6523 18.9614 18.6071 18.7256 18.5131C18.0575 18.2527 17.4505 17.9254 16.9203 17.5398L16.8164 17.4662C16.1294 16.9903 15.6086 16.2921 15.3064 15.4667C17.1142 14.6231 19.0053 13.6104 20.9355 12.3845C22.2234 11.5665 23.4759 10.8548 24.6887 10.224V11.6149C24.6887 11.7 24.685 11.785 24.6788 11.87C24.6607 12.1004 24.6283 12.3344 24.5819 12.5661L24.0365 14.8995C23.7917 15.9726 23.1942 16.8847 22.3531 17.4671L22.2484 17.541C21.7195 17.9254 21.1125 18.2527 20.4431 18.5135ZM26.5408 9.30284L26.2242 9.82933L26.2246 9.74267C26.2251 9.64654 26.2257 9.55062 26.2238 9.45397L26.3293 9.40343C26.4001 9.36944 26.4708 9.33549 26.5408 9.30284ZM26.2143 10.4437L27.0357 9.07697C27.1708 9.01578 27.3051 8.955 27.4389 8.89586L26.1897 10.9751C26.2003 10.7989 26.2082 10.6215 26.2143 10.4437ZM26.5112 11.0384L27.926 8.68395C28.0587 8.62728 28.1892 8.57266 28.3203 8.51804L26.8566 10.9538C26.8037 10.9662 26.7521 10.9792 26.7004 10.9922L26.7002 10.9923C26.6381 11.0079 26.5758 11.0236 26.5112 11.0384ZM27.2775 10.8507L28.7979 8.3205C28.901 8.27885 29.0027 8.23899 29.1044 8.19911L29.1044 8.19909L29.1843 8.16773L27.6229 10.7661C27.5515 10.7845 27.4786 10.802 27.4056 10.8196L27.4054 10.8196C27.3627 10.8299 27.32 10.8402 27.2775 10.8507ZM28.0476 10.6572L29.6525 7.98662C29.7802 7.93816 29.9075 7.89012 30.0332 7.84371L28.4012 10.5595C28.3544 10.5723 28.3083 10.5853 28.2622 10.5982L28.2621 10.5982C28.1913 10.6182 28.1205 10.6381 28.0476 10.6572ZM28.832 10.4404L30.4923 7.67821L30.5461 7.65897L30.5462 7.65895C30.6535 7.62055 30.7609 7.58215 30.8664 7.54556L29.1855 10.3427C29.1198 10.3618 29.0515 10.3803 28.9831 10.3989C28.9324 10.4126 28.8817 10.4264 28.832 10.4404ZM29.6258 10.2076L31.3174 7.39279C31.441 7.35172 31.5625 7.31189 31.6841 7.27246L29.9872 10.0959C29.8677 10.1332 29.7478 10.1706 29.6258 10.2076ZM30.4287 9.95992L32.1289 7.13078C32.2166 7.10361 32.3026 7.07772 32.3884 7.05188L32.3886 7.05181L32.489 7.02154L30.7983 9.83507C30.7492 9.85149 30.7009 9.86804 30.6527 9.88458L30.6526 9.88461C30.579 9.90986 30.5053 9.93512 30.4287 9.95992ZM31.2504 9.68107L32.926 6.893C33.0451 6.8585 33.1646 6.824 33.2812 6.79156L31.6204 9.5554C31.5568 9.5777 31.4907 9.59987 31.4243 9.62212C31.366 9.64167 31.3075 9.66128 31.2504 9.68107ZM32.0829 9.38292L33.71 6.67534C33.8278 6.64413 33.9445 6.61333 34.0599 6.58376L32.4623 9.24165C32.3718 9.2761 32.2792 9.31034 32.1862 9.34467L32.1862 9.34468L32.0829 9.38292ZM32.9305 9.06054L34.4833 6.47739C34.5716 6.45593 34.658 6.43565 34.744 6.41547L34.7441 6.41546L34.8266 6.39608L33.3198 8.90325L33.199 8.95229L33.1988 8.95237C33.1104 8.98834 33.0216 9.02444 32.9305 9.06054ZM33.7958 8.709L35.2426 6.30162C35.3568 6.27616 35.4705 6.25111 35.5814 6.2277L34.1954 8.53447C34.1419 8.55766 34.0893 8.58085 34.0366 8.6041C33.9577 8.63889 33.8785 8.6738 33.7958 8.709ZM34.6824 8.32174L35.9917 6.1431C36.1054 6.12052 36.2151 6.09998 36.3247 6.07945L35.0927 8.12954C35.0513 8.14901 35.0105 8.16837 34.9698 8.18769C34.8757 8.23233 34.7822 8.27673 34.6824 8.32174ZM35.5937 7.89381L36.7276 6.00676C36.8393 5.98705 36.9485 5.96857 37.0553 5.95132L36.0143 7.68355C35.9681 7.70661 35.9224 7.72967 35.8765 7.75281C35.7844 7.7993 35.6916 7.8461 35.5937 7.89381ZM36.5338 7.41702L37.4524 5.88848C37.5629 5.87206 37.6709 5.85604 37.7752 5.84167L36.967 7.18663C36.8286 7.26219 36.6816 7.3394 36.5338 7.41702ZM37.9621 6.61908C37.8179 6.70491 37.668 6.79279 37.5079 6.88396L38.1654 5.79033C38.2754 5.77678 38.3814 5.76405 38.4824 5.75296L37.9621 6.61908ZM38.5305 6.27123L38.8656 5.71354C39.0841 5.693 39.2787 5.6774 39.4409 5.66672C39.2147 5.82688 38.9046 6.03468 38.5305 6.27123ZM19.6304 16.1258C19.8275 16.1258 20.0193 16.0268 20.0193 16.0268C20.6981 15.6671 21.0341 16.15 21.0341 16.15C21.0341 16.15 20.4184 17.1447 19.6308 17.1365C18.8431 17.1447 18.2275 16.15 18.2275 16.15C18.2275 16.15 18.5626 15.6671 19.2415 16.0268C19.2415 16.0268 19.4332 16.1258 19.6304 16.1258Z" fill="#232F3E"/>
</svg>

<svg width="41" height="31" fill="none" xmlns="http://www.w3.org/2000/svg"><path fill-rule="evenodd" clip-rule="evenodd" d="M40.266 5.32a.206.206 0 00-.146-.09l-.015-.001c-5.518-.278-13.622.565-14.848.698l-.57-1.459C23.45 1.303 19.694-.305 16.312.885l-.763.268c-1.705.6-3.047 1.796-3.779 3.37a5.84 5.84 0 00-.179 4.564l.552 1.454c-1.056.68-7.773 5.044-11.775 8.664a.205.205 0 00.138.357h.006c.072-.002 5.514-.205 12.772-3.203a6.945 6.945 0 01-.933 3.094c-.36.61-.836 1.14-1.37 1.606-1.347 1.176-5.39 5.194-3.22 9.419 0 0 .123-2.593 2.182-3.921.542-.349 1.17-.537 1.81-.61l1.256-.145s.988-.148 2.016-.577a3.246 3.246 0 001.917-2.28c.24-1.057.363-2.723-.07-5.19a8.225 8.225 0 001.78.949c.259.103.564.153.934.153.369 0 .675-.05.933-.153a8.355 8.355 0 001.568-.807l-.161 3.233s-.072 1.918.703 3.086c.775 1.168 2.644 1.159 2.644 1.159s-1.578-.764-1.873-2.458a4.765 4.765 0 01.276-2.572c.084-.207.165-.413.243-.622.194-.515.404-1.024.634-1.525.55-1.193 1.344-3.769 1.594-6.659C35.4 9.51 40.137 5.666 40.225 5.592h.002a.202.202 0 00.072-.136c.002-.01.002-.019.002-.028a.21.21 0 00-.035-.108zM20.443 18.514c-.234.093-.515.138-.858.138-.343 0-.624-.045-.86-.139a8.012 8.012 0 01-1.805-.973l-.104-.074c-.687-.476-1.207-1.174-1.51-2a49.64 49.64 0 005.63-3.082 50.088 50.088 0 013.753-2.16v1.39c0 .086-.004.171-.01.256-.018.23-.05.464-.097.696l-.546 2.333c-.244 1.074-.842 1.986-1.683 2.568l-.105.074a8.017 8.017 0 01-1.805.973zm6.098-9.211l-.317.526v-.086c.001-.096.002-.192 0-.289l.105-.05c.071-.035.142-.069.212-.101zm-.327 1.14l.822-1.366.403-.181-1.25 2.08c.011-.177.02-.355.025-.532zm.297.595l1.415-2.354.394-.166-1.463 2.436-.157.038a4.755 4.755 0 01-.189.046zm.767-.187l1.52-2.53.306-.122.08-.031-1.561 2.598-.217.054-.128.03zm.77-.194l1.605-2.67c.127-.049.255-.097.38-.143l-1.632 2.715-.139.04c-.07.02-.142.04-.214.058zm.784-.217l1.66-2.762.054-.019c.108-.038.215-.077.32-.113l-1.68 2.797-.203.056-.151.041zm.794-.232l1.691-2.815.367-.12-1.697 2.823-.361.112zm.803-.248l1.7-2.83.26-.078.1-.03-1.69 2.813c-.05.016-.098.033-.146.05l-.224.075zm.821-.279l1.676-2.788.355-.101-1.66 2.763c-.064.023-.13.045-.197.067l-.174.06zm.833-.298l1.627-2.708c.118-.03.234-.062.35-.091l-1.598 2.658-.276.103-.103.038zm.848-.322l1.552-2.584.261-.062.083-.019-1.507 2.507-.121.05-.268.108zm.865-.352l1.447-2.407c.114-.026.227-.05.338-.074l-1.386 2.306a20.139 20.139 0 01-.4.175zm.886-.387l1.31-2.179.333-.064-1.232 2.05-.123.059c-.094.044-.188.089-.288.134zm.912-.428l1.134-1.887.327-.056-1.04 1.733-.139.069c-.092.046-.184.093-.282.14zm.94-.477l.918-1.529.323-.046-.808 1.345c-.138.075-.285.152-.433.23zm1.428-.798c-.144.086-.294.174-.454.265l.657-1.094.317-.037-.52.866zm.569-.348l.335-.557c.218-.021.413-.037.575-.047-.226.16-.536.368-.91.604zm-18.9 9.855a.975.975 0 00.388-.1c.68-.359 1.015.124 1.015.124s-.616.995-1.403.987c-.788.008-1.404-.987-1.404-.987s.336-.483 1.014-.123c0 0 .192.099.39.099z" fill="#232F3E"/></svg>
